X:12
T:MY LOVE IS ON THE OCEAN -- REEL.
R:reel
B:Coles pg. 30.4
Z:John B. Walsh, 5/8/2002 <walsh:mat:h.ubc.ca>
M:2/4
L:1/16
K:D
v(eA)(3.A.A.A ({c}BABd)|((3efg)(fd) (edBd)|(eA)(3.A.A.A ({c}BABd)|\
(eg).d.c (Bd).d2|
(eA)(3.A.A.A ({c}BABd)|((3efg)(fd) (edBd)|.g2(bg) .f2(af)|\
(gef).d (Bd).d2:|
.a2(ab) afdf|gefd edBd|.a2(ab) .a(fdf)|(gef).d (Bd).d2|
.a2(ab) (afd).f|gefd edBd|.g2(bg) .f2(af)|(gef).d (Bd).d2:|
